svg/outlined/MessageOutlinedIcon.svg

<svg width="24" height="24" viewBox="0 0 24 24" fill="#cacaca" xmlns="http://www.w3.org/2000/svg">
   <path d="M8.625 16.0614C9.09375 16.0848 9.49219 16.2489 9.82031 16.5536C10.125 16.8817 10.2891 17.2802 10.3125 17.7489V18.3114L12.8789 16.413C13.1602 16.1786 13.4883 16.0614 13.8633 16.0614H18.75C19.1016 16.038 19.2891 15.8505 19.3125 15.4989V5.3739C19.2891 5.02234 19.1016 4.83484 18.75 4.8114H5.25C4.89844 4.83484 4.71094 5.02234 4.6875 5.3739V15.4989C4.71094 15.8505 4.89844 16.038 5.25 16.0614H8.625ZM10.3125 20.4208L10.1367 20.5614L9.53906 21.0184C9.35156 21.1356 9.15234 21.1473 8.94141 21.0536C8.73047 20.9598 8.625 20.7958 8.625 20.5614V17.7489H5.25C4.61719 17.7255 4.08984 17.5028 3.66797 17.0809C3.24609 16.6591 3.02344 16.1317 3 15.4989V5.3739C3.02344 4.74109 3.24609 4.21375 3.66797 3.79187C4.08984 3.37 4.61719 3.14734 5.25 3.1239H18.75C19.3828 3.14734 19.9102 3.37 20.332 3.79187C20.7539 4.21375 20.9766 4.74109 21 5.3739V15.4989C20.9766 16.1317 20.7539 16.6591 20.332 17.0809C19.9102 17.5028 19.3828 17.7255 18.75 17.7489H13.8633L10.3125 20.4208Z" /> 
</svg>

<svg width="24" height="24" fill="#cacaca" xmlns="http://www.w3.org/2000/svg"><path d="M8.625 16.061c.469.024.867.188 1.195.493.305.328.47.726.492 1.195v.562l2.567-1.898c.281-.234.61-.352.984-.352h4.887c.352-.023.54-.21.563-.562V5.374c-.024-.352-.211-.54-.563-.563H5.25c-.352.024-.54.211-.563.563v10.125c.024.351.211.539.563.562h3.375zm1.688 4.36l-.176.14-.598.457a.603.603 0 01-.598.036.498.498 0 01-.316-.493V17.75H5.25c-.633-.023-1.16-.246-1.582-.668-.422-.422-.645-.95-.668-1.582V5.374c.023-.633.246-1.16.668-1.582.422-.422.95-.645 1.582-.668h13.5c.633.023 1.16.246 1.582.668.422.422.645.95.668 1.582v10.125c-.023.633-.246 1.16-.668 1.582-.422.422-.95.645-1.582.668h-4.887l-3.55 2.672z"/></svg>
